X:1
T:The West Awake  "by Thomas Davis, Mallow, Co. Cork"
C:arr. Pipe Major Bill Cleary
S:Air
M:C
L:1/8
Q:80
K:HP
A|
{g}d3/2c/2{g}dA{g}B3/2A/2{g}BA|
{g}c3/2B/2{g}cA{g}d3/2c/2{g}dA|
{g}d3/2c/2{g}dA{g}B3/2A/2{g}d{e}B|  !
{g}c3/2B/2{g}cA{g}d3/2c/2{Gdc}d|]
A|
{g}f3/2e/2{g}fd{a}g3/2f/2gf|
{a}g3/2f/2{g}ed{g}c3/2d/2{g}ea|  !
{g}a3/2a/2ge{g}c3/2A/2fA|
{g}f3/2g/2{a}eA{g}e3/2f/2{Gdc}d|]

